!!!!SEGMENT: pl-kk--kk-i-636--005_anonim--miserere.krn
!!!cenid: 18xx:4560
!!!COM: Anonim
!!!COM-rismID: pe30004985
!!!CDT:
!!!CNT:
!!!OTL: Miserere
!!!PDT:
!!!AGN: Sacred
!!!YEC: Copyright 2022 Narodowy Instytut Fryderyka Chopina (https://polishscores.org)
!!!YEM: License CC-BY-4.0 (https://creativecommons.org/licenses/by/4.0)
!!!SMS-siglum: PL-Kk
!!!SMS-shelfmark: Kk.I.636
!!!SMS-variant:
!!!SMS-altvar:
!!!SMS-shelfwork: 005 W
!!!NIFC-rismSourceID: 1001216440
!!!NIFC-rismChildID: 1001216936
!!!NIFC-islandoraID: pl-kk:40786
!!!URL-pdf-islandora: https://repozytorium.nifc.pl/islandora/object/pl-kk%3A40786/datastream/PDF/view
!!!URL-scan: https://polish.musicsources.pl/pl/lokalizacje/galeria/rekopisy/7271/1 @EN{Scan on Polish Music Sources Website} @PL{Skany w portalu Dziedzictwo Muzyki Polskiej w otwartym dostępie}
!!!IIIF:
!!!ONB-nifc: UWAGA: S – skan 21-22 , A – 43-44, T – 67-68, B – 93-94.
!!!AIN: 1 alto 1 bass 1 soprn 1 tenor
!!!key:
**kern	**text	**kern	**text	**kern	**text	**kern	**text
*part4	*part4	*part3	*part3	*part2	*part2	*part1	*part1
*staff4	*staff4	*staff3	*staff3	*staff2	*staff2	*staff1	*staff1
*I"Basso.	*	*I"Tenore.	*	*I"Alto.	*	*I"Soprano.	*
*I'B	*	*I'T	*	*I'A	*	*I'S	*
*Ibass	*	*Itenor	*	*Ialto	*	*Isoprn	*
*ICvox	*	*ICvox	*	*ICvox	*	*ICvox	*
*clefF4	*	*clefC4	*	*clefC3	*	*clefC1	*
*k[b-]	*	*k[b-]	*	*k[b-]	*	*k[b-]	*
*g:	*	*g:	*	*g:	*	*g:	*
*M2/2	*	*M2/2	*	*M2/2	*	*M2/2	*
*met(c|)	*	*met(c|)	*	*met(c|)	*	*met(c|)	*
=1	=1	=1	=1	=1	=1	=1	=1
*2\right	*	*2\right	*	*2\right	*	*2\right	*
2.G\	Mi-	2.B-\	Mi-	2.g\	Mi-	2.dd\	Mi-
4G\	-se-	4B-\	-se-	4g\	-se-	4dd\	-se-
=2	=2	=2	=2	=2	=2	=2	=2
1G	-re-	1B-	-re-	1g	-re-	1dd	-re-
=3	=3	=3	=3	=3	=3	=3	=3
1GG	-re	1d	-re	1g	-re	1b-	-re
=4	=4	=4	=4	=4	=4	=4	=4
2G\	me-	2d\	me-	2g\	me-	2r	.
2F\	-i	2A\	-i	2a\	.	[2dd\	me-
=5	=5	=5	=5	=5	=5	=5	=5
1E-X	De-	2B-\	De-	2g\	.	2dd\]	.
.	.	2c\	.	2e-X\	-i	2cc\	-i
!	!	!	!	!	!	!LO:LB:g=original	!
=6	=6	=6	=6	=6	=6	=6	=6
2.D\	.	4c\	.	1f	De-	1dd	De-
.	.	4B-\	.	.	.	.	.
.	.	2B-\	.	.	.	.	.
4E-X\	.	.	.	.	.	.	.
!LO:LB:g=original	!	!	!	!	!	!	!
=7	=7	=7	=7	=7	=7	=7	=7
1F	.	2B-\	.	1f	.	1cc	.
.	.	2A\	.	.	.	.	.
!	!	!LO:LB:g=original	!	!LO:LB:g=original	!	!	!
=8	=8	=8	=8	=8	=8	=8	=8
1BB-;	-us,	1B-;	-us,	1f;	-us,	1dd;	-us
=9||	=9||	=9||	=9||	=9||	=9||	=9||	=9||
2F\	se-	2c\	se-	2f\	se-	2cc\	se-
4F\	-cun-	4c\	-cun-	4f\	-cun-	4cc\	-cun-
4F\	-dum	4c\	-dum	4f\	-dum	4cc\	-dum
=10	=10	=10	=10	=10	=10	=10	=10
2F\	mag-	2A\	mag-	2f\	mag-	2cc\	mag-
[2F\	-nam	[2A\	-nam	2f\	-nam	[2cc\	-nam
=11	=11	=11	=11	=11	=11	=11	=11
2F\]	.	2A\]	.	2f\	mi-	2cc\]	.
2C/	mi-	2c\	mi-	[2g\	-se-	2ee-X\	mi-
=12	=12	=12	=12	=12	=12	=12	=12
2G\	-se-	2B-\	-se-	2g\]	.	2.dd\	-se-
2F#X\	-ri-	2d\	-ri-	[2a\	-ri-	.	.
.	.	.	.	.	.	4cc\	-ri-
!LO:LB:g=original	!	!	!	!	!	!LO:LB:g=original	!
=13	=13	=13	=13	=13	=13	=13	=13
2.G\	-cor-	2.d\	-cor-	2a\]	.	2b-\	-cor-
.	.	.	.	2g\	-cor-	2dd\	-di-
4G\	-di-	4d\	-di-	.	.	.	.
=14	=14	=14	=14	=14	=14	=14	=14
!	!	!	!	!LO:N:xstem:cue	!	!	!
1D	-am	1d	-am	4g\	.	1dd	-am
.	.	.	.	4g\	-di-	.	.
.	.	.	.	2f#X\	-am	.	.
!	!	!LO:LB:g=original	!	!LO:LB:g=original	!	!	!
=15	=15	=15	=15	=15	=15	=15	=15
1GG	tu-	4B-\	tu-	1g	tu-	1dd	tu-
.	.	4c\	.	.	.	.	.
.	.	2d\	.	.	.	.	.
=16	=16	=16	=16	=16	=16	=16	=16
!	!	!	!	!LO:N:xstem:cue	!	!	!
1D	.	1d	.	2g\	.	1dd	.
.	.	.	.	4f#X\	.	.	.
.	.	.	.	4e\	.	.	.
=17	=17	=17	=17	=17	=17	=17	=17
0D	-am.	0d	-am.	0f#X	-am.	0dd	-am.
!LO:LB:g=original	!	!LO:LB:g=original	!	!LO:LB:g=original	!	!LO:LB:g=original	!
==18	==18	==18	==18	==18	==18	==18	==18
*k[b-]	*	*k[b-]	*	*k[b-]	*	*k[b-]	*
*M2/2	*	*M2/2	*	*M2/2	*	*M2/2	*
*met(c|)	*	*met(c|)	*	*met(c|)	*	*met(c|)	*
2.G\	Ti-	2.d\	Ti-	2.g\	Ti-	2.dd\	Ti-
4G\	-bi	4d\	-bi	4g\	-bi	4dd\	-bi
=19	=19	=19	=19	=19	=19	=19	=19
2G\	so-	2d\	so-	2g\	so-	2dd\	so-
4G\	-li	4d\	-li	4g\	-li	4dd\	-li
4G\	pec-	4d\	pec-	4g\	pec-	4dd\	pec-
=20	=20	=20	=20	=20	=20	=20	=20
2G\	-ca-	1B-	-ca-	1g	-ca-	1dd	-ca-
[2GG/	-vi	.	.	.	.	.	.
=21	=21	=21	=21	=21	=21	=21	=21
2GG/]	.	1B-	-vi	2g\	-vi	1dd	-vi,
2G\	et	.	.	2g\	et	.	.
=22	=22	=22	=22	=22	=22	=22	=22
2G\	ma-	2r	.	2g\	ma-	2r	.
2G\	-lum	2B-\	et	2g\	-lum	2dd\	et
!LO:LB:g=original	!	!	!	!	!	!LO:LB:g=original	!
=23	=23	=23	=23	=23	=23	=23	=23
1B-	co-	2B-\	ma-	1f	co-	2dd\	ma-
.	.	2B-\	-lum	.	.	2dd\	-lum
!	!	!	!	!LO:LB:g=original	!	!	!
=24	=24	=24	=24	=24	=24	=24	=24
2F\	-ram	1A	co-	1f	-ram	2cc\	co-
2D\	te	.	.	.	.	[2dd\	-ram
!	!	!LO:LB:g=original	!	!	!	!	!
=25	=25	=25	=25	=25	=25	=25	=25
1G	fe-	2B-\	-ram	2r	.	2dd\]	.
.	.	2G\	te	2d\	te	2b-\	te
=26	=26	=26	=26	=26	=26	=26	=26
!	!	!	!	!LO:TX:b:t=2	!	!	!
0F	.	2A\	fe-	0f	fe-	2cc\	fe-
.	.	[2B-\	.	.	.	[2dd\	.
=27	=27	=27	=27	=27	=27	=27	=27
.	.	2B-\]	.	.	.	2dd\]	.
.	.	2A\	.	.	.	2cc\	.
=28	=28	=28	=28	=28	=28	=28	=28
1BB-	-ci,	1B-	-ci,	1f	-ci,	1dd	-ci,
=29	=29	=29	=29	=29	=29	=29	=29
!LO:TX:a:t=1	!	!LO:TX:a:t=1	!	!LO:TX:a:t=1	!	!LO:TX:a:t=1	!
1r	.	1r	.	1r	.	1r	.
!	!	!	!	!	!	!LO:LB:g=original	!
=30	=30	=30	=30	=30	=30	=30	=30
1F	ut	2r	.	1f	ut	2r	.
.	.	[2A\	ut	.	.	[2cc\	ut
=31	=31	=31	=31	=31	=31	=31	=31
!	!	!	!	!LO:N:xstem:cue	!	!	!
1F	ju-	2A\]	.	2f\	.	2cc\]	.
.	.	2A\	ju-	2c\	ju-	2cc\	ju-
=32	=32	=32	=32	=32	=32	=32	=32
2E-X\	-sti-	2c\	-sti-	2e-X\	-sti-	2cc\	-sti-
2D\	-fi-	2d\	-fi-	2f\	-fi-	2bn\	-fi-
!LO:LB:g=original	!	!LO:LB:g=original	!	!	!	!	!
=33	=33	=33	=33	=33	=33	=33	=33
2C/	-ce-	2e-X\	-ce-	2e-X\	-ce-	2cc\	-ce-
2C/	-ris	2c\	-ris	2e-\	-ris	2cc\	-ris
!	!	!	!	!LO:LB:g=original	!	!	!
=34	=34	=34	=34	=34	=34	=34	=34
2G\	in	2B-\	in	2g\	in	2ee-X\	in
2F#X\	ser-	2d\	ser-	2a\	ser-	2dd\	ser-
=35	=35	=35	=35	=35	=35	=35	=35
4G\	-mo-	4B-\	-mo-	4g\	-mo-	4ee-X\	-mo-
4G\	-ni-	4B-\	-ni-	4g\	-ni-	4ee-\	-ni-
2Fn\	-bus	2A\	-bus	2a\	-bus	[2dd\	-bus
!	!	!	!	!	!	!LO:LB:g=original	!
=36	=36	=36	=36	=36	=36	=36	=36
1E-X	tu-	4B-\	tu-	2r	.	2dd\]	.
.	.	4A\	.	.	.	.	.
.	.	2G\	.	[2g\	tu-	2cc\	tu-
=37	=37	=37	=37	=37	=37	=37	=37
[1D	-is	1A	-is,	2g\]	.	[1dd	-is
.	.	.	.	4f#X\	.	.	.
.	.	.	.	4e\	.	.	.
=38	=38	=38	=38	=38	=38	=38	=38
2D\]	.	2r	.	2f#X\	-is	2dd\]	,
2BB-/	et	2B-\	et	2fn\	et	2dd\	et
=39	=39	=39	=39	=39	=39	=39	=39
1F	vin-	2B-\	vin-	2f\	vin-	2dd\	vin-
.	.	[2A\	-cas	2f\	-cas	2cc\	-cas
!LO:LB:g=original	!	!LO:LB:g=original	!	!	!	!	!
=40	=40	=40	=40	=40	=40	=40	=40
2F\	-cas	2A\]	.	2f\	.	2r	.
2D\	cum	2A\	cum	2f#X\	cum	2dd\	cum
!	!	!	!	!LO:LB:g=original	!	!	!
=41	=41	=41	=41	=41	=41	=41	=41
2GG/	ju-	2B-\	ju-	2g\	ju-	2b-\	ju-
2FF#X/	-di-	2c\	-di-	2a\	-di-	2a\	-di-
=42	=42	=42	=42	=42	=42	=42	=42
1GG	-ca-	4B-\	-ca-	2a\	.	1b-	-ca-
.	.	4c\	.	.	.	.	.
.	.	2d\	.	[2g\	-ca-	.	.
=43	=43	=43	=43	=43	=43	=43	=43
1D	.	1d	.	2g\]	.	1a	.
.	.	.	.	4f#X\	.	.	.
.	.	.	.	4e\	.	.	.
=44	=44	=44	=44	=44	=44	=44	=44
!	!	!	!	!LO:TX:b:t=2.	!	!	!
0D	-ris.	0d	-ris.	0f#X	-ris.	0a	-ris.
!LO:LB:g=original	!	!LO:LB:g=original	!	!LO:LB:g=original	!	!LO:LB:g=original	!
==45	==45	==45	==45	==45	==45	==45	==45
*k[b-]	*	*k[b-]	*	*k[b-]	*	*k[b-]	*
*M2/2	*	*M2/2	*	*M2/2	*	*M2/2	*
*met(c|)	*	*met(c|)	*	*met(c|)	*	*met(c|)	*
!LO:TX:b:t=Auditui meo dubis gaudium,	!	!	!	!	!	!	!
0.F	.	4B-\	Au-	4g\	Au-	4dd\	Au-
.	.	4B-\	-di-	4g\	-di-	4dd\	-di-
.	.	4B-\	-tu-	4g\	-tu-	4dd\	-tu-
.	.	4B-\	-i	4g\	-i	4dd\	-i
.	.	4B-\	me-	4g\	me-	4dd\	me-
.	.	2B-,\	-o,	2g\	-o	2dd,\	-o
.	.	4B-\	da-	4g\	da-	4dd\	da-
.	.	4B-\	-bis	4g\	-bis	4dd\	-bis
.	.	4.B-\	gau-	4.g\	gau-	4.dd\	gau-
.	.	8B-\	-di-	8g\	-di-	8dd\	-di-
.	.	2B-\	-um	2g\	-um,	2dd\	-um,
4ryy	.	.	.	.	.	.	.
!	!	!	!	!LO:LB:g=original	!	!LO:LB:g=original	!
=46||	=46||	=46||	=46||	=46||	=46||	=46||	=46||
!LO:TX:t=P:problem:fragment dysonuje harmonicznie 	!	!LO:TX:a:t=à Tempo	!	!LO:TX:a:t=à tempo.	!	!LO:TX:a:t=à tempo.	!
2r	.	2A\	et	1f#X	et	2r	.
[2F\	et	2d\	le-	.	.	[2dd\	et
!	!	!LO:LB:g=original	!	!	!	!	!
=47	=47	=47	=47	=47	=47	=47	=47
2F\]	.	2B-\	-ti-	1g	le-	2dd\]	.
2E\	le-	4c\	.	.	.	2cc\	le-
.	.	4B-\	.	.	.	.	.
=48	=48	=48	=48	=48	=48	=48	=48
2E\	-ti-	2A\	.	[1fn	-ti-	2cc\	-ti-
2F\	.	[2B-\	.	.	.	2dd\	.
!LO:LB:g=original	!	!	!	!	!	!	!
=49	=49	=49	=49	=49	=49	=49	=49
2.E\	.	2B-\]	.	2f\]	.	2.cc\	.
.	.	2A\	-ti-	2f\	-ti-	.	.
4E\	-ti-	.	.	.	.	4cc\	-ti-
=50	=50	=50	=50	=50	=50	=50	=50
1F	-am,	1B-	-am,	1f	-am,	1dd	-am,
=51	=51	=51	=51	=51	=51	=51	=51
!LO:TX:a:t=1	!	!LO:TX:a:t=1	!	!LO:TX:a:t=1	!	!LO:TX:a:t=1	!
1r	.	1r	.	1r	.	1r	.
!	!	!	!	!	!	!LO:LB:g=original	!
=52||	=52||	=52||	=52||	=52||	=52||	=52||	=52||
!LO:TX:b:t=et exultabant oſsa,	!	!	!	!	!	!	!
0E	.	2A\	et	2f\	et	2cc\	et
.	.	4A\	e-	4f\	e-	4cc\	e-
.	.	4A\	-xul-	4f\	-xul-	4cc\	-xul-
.	.	4A\	-ta-	4f\	-ta-	4cc\	-ta-
.	.	4A\	-bunt	4f\	-bunt	4cc\	-bunt
.	.	4A\	os-	4f\	os-	4cc\	os-
.	.	2A\	-sa	2f\	-sa	2cc\	-sa
4ryy	.	.	.	.	.	.	.
!	!	!LO:LB:g=original	!	!LO:LB:g=original	!	!	!
=53||	=53||	=53||	=53||	=53||	=53||	=53||	=53||
1D	hu-	1A	hu-	1f	hu-	2r	.
.	.	.	.	.	.	[2dd\	hu-
=54	=54	=54	=54	=54	=54	=54	=54
1AA	-mi-	2.A\	-mi-	1en	-mi-	2dd\]	.
.	.	.	.	.	.	2cc\	-mi-
.	.	4G\	-li-	.	.	.	.
=55	=55	=55	=55	=55	=55	=55	=55
1BB-	-li-	2F/	-a-	1d	-li-	2cc\	.
.	.	2D/	-ta,	.	.	[2b-\	-li-
!LO:LB:g=original	!	!	!	!	!	!	!
=56	=56	=56	=56	=56	=56	=56	=56
1C	-a-	2r	.	1e-X	-a-	2b-\]	.
.	.	2A\	hu-	.	.	4a\	.
.	.	.	.	.	.	4g\	.
!	!	!	!	!	!	!LO:LB:g=original	!
=57	=57	=57	=57	=57	=57	=57	=57
!	!	!	!	!LO:TX:b:t=2	!	!	!
0D	.	2A\	-mi-	0d	.	4f#X/	-a-
.	.	.	.	.	.	4g/	.
.	.	2F#X/	-li-	.	.	2a\	.
=58	=58	=58	=58	=58	=58	=58	=58
.	.	2.G/	-a-	.	.	4b-\	.
.	.	.	.	.	.	4cc\	.
.	.	.	.	.	.	4dd\	.
.	.	4A/	.	.	.	4cc\	.
!	!	!LO:LB:g=original	!	!	!	!	!
=59	=59	=59	=59	=59	=59	=59	=59
!	!	!	!	!LO:TX:b:t=2	!	!	!
0D	.	2B-\	.	0d	.	4b-\	.
.	.	.	.	.	.	4a\	.
.	.	2G/	.	.	.	2b-\	.
=60	=60	=60	=60	=60	=60	=60	=60
.	.	1A	.	.	.	1a	.
=61	=61	=61	=61	=61	=61	=61	=61
!	!	!	!	!LO:TX:b:t=2	!	!	!
0D;	-ta.	0A	-ta.	0d	-ta.	0a	-ta.
!LO:TX:b:t=Vert&colon;	!	!LO:TX:b:t=Vert&colon;	!	!LO:TX:b:t=Vert&colon;	!	!LO:TX:b:t+Vert&colon;	!
!LO:PB:g=original	!	!LO:PB:g=original	!	!LO:PB:g=original	!	!LO:PB:g=original	!
==62	==62	==62	==62	==62	==62	==62	==62
*M2/2	*	*M2/2	*	*M2/2	*	*M2/2	*
*met(c|)	*	*met(c|)	*	*met(c|)	*	*met(c|)	*
2.G\	Red-	2.d\	Red-	2.g\	Red-	2.dd\	Red-
4G\	-de	4d\	-de	4g\	-de	4dd\	-de
=63	=63	=63	=63	=63	=63	=63	=63
2G\	mi-	2d\	mi-	2g\	mi-	2dd\	mi-
4G\	-hi	4d\	-hi	4g\	-hi	4dd\	-hi
4G\	le-	4d\	le-	4g\	le-	4dd\	le-
=64	=64	=64	=64	=64	=64	=64	=64
2.G\	-ti-	2.d\	-ti-	2.g\	-ti-	2.dd\	-ti-
4G\	-ti-	4d\	-ti-	4g\	-ti-	4dd\	-ti-
=65	=65	=65	=65	=65	=65	=65	=65
1G	-am,	1d	-am,	2g\	-am	1dd	-am
.	.	.	.	[2g\	sa-	.	.
!	!	!	!	!LO:LB:g=original	!	!	!
=66	=66	=66	=66	=66	=66	=66	=66
!	!	!LO:TX:a:t=1	!	!	!	!	!
2B-\	sa-	1r	.	2g\]	.	2dd\	sa-
2A\	-lu-	.	.	2f#X\	-lu-	2a\	-lu-
!LO:LB:g=original	!	!LO:LB:g=original	!	!	!	!LO:LB:g=original	!
=67	=67	=67	=67	=67	=67	=67	=67
2G\	-ta-	2e-X\	sa-	2g\	-ta-	2b-\	-ta-
2F\	-ris	2d\	-lu-	2e\	-ris	2dd\	-ris,
=68	=68	=68	=68	=68	=68	=68	=68
!	!	!	!	!	!	!LO:TX:a:t=1	!
1E-X	tu-	2c\	-ta-	1g	tu-	1r	.
.	.	2B-\	-ris	.	.	.	.
=69	=69	=69	=69	=69	=69	=69	=69
1F	.	2A\	tu-	[1fn	.	2cc\	tu-
.	.	2B-\	.	.	.	2dd\	.
=70	=70	=70	=70	=70	=70	=70	=70
1FF	.	2B-\	.	1f_	.	1cc	.
.	.	2A\	.	.	.	.	.
=71	=71	=71	=71	=71	=71	=71	=71
1BB-	-i,	1B-	-i,	1f]	-i,	1dd	-i,
=72	=72	=72	=72	=72	=72	=72	=72
2r	.	2r	.	2r	.	2r	.
2F\	et	2A\	et	2f\	et	2cc\	et
!	!	!LO:LB:g=original	!	!LO:LB:g=original	!	!	!
=73	=73	=73	=73	=73	=73	=73	=73
2.F\	spi-	2.A\	spi-	2.f\	spi-	2.cc\	Spi-
4F\	-ri-	4A\	-ri-	4f\	-ri-	4cc\	-ri-
=74	=74	=74	=74	=74	=74	=74	=74
1F	-tu	1A	-tu	2f\	-tu	1cc	-tu
.	.	.	.	[2f\	prin-	.	.
!LO:LB:g=original	!	!	!	!	!	!LO:LB:g=original	!
=75	=75	=75	=75	=75	=75	=75	=75
2D\	prin-	2d\	prin-	2f\]	.	2dd\	prin-
2A\	-ci-	2e\	-ci-	2e\	-ci-	2cc#X\	-ci-
=76	=76	=76	=76	=76	=76	=76	=76
1D	-pa-	1d	-pa-	1f	-pa-	2dd\	-pa-
.	.	.	.	.	.	[2a\	-li
=77	=77	=77	=77	=77	=77	=77	=77
2D\	-li	2A\	-li	2d\	-li	2a\]	.
2D\	con-	2A\	con-	2f#X\	con-	2dd\	con-
=78	=78	=78	=78	=78	=78	=78	=78
2GG/	-fir-	2B-\	-fir-	2g\	-fir-	1dd	-fir-
2FF#X/	.	2c\	.	[2a\	-ma,	.	.
!	!	!	!	!LO:LB:g=original	!	!	!
=79	=79	=79	=79	=79	=79	=79	=79
!	!	!	!	!	!	!LO:N:xstem:cue	!
2.GG/	.	[1B-	.	4a\]	.	2dd\	.
.	.	.	.	4g\	con-	.	.
.	.	.	.	2g\	-fir-	2dd\	-ma
4GG/	-ma	.	.	.	.	.	.
!	!	!LO:LB:g=original	!	!	!	!	!
=80	=80	=80	=80	=80	=80	=80	=80
!	!	!	!	!	!	!LO:TX:b:t=2.	!
0BB-	me.	2B-\]	.	2g\	.	0dd;	me.
.	.	4A\	.	4f#X\	-ma	.	.
.	.	4G\	-ma	4e\	.	.	.
=81	=81	=81	=81	=81	=81	=81	=81
.	.	1A;	me.	1f#X;	me.	.	.
!LO:LB:g=original	!	!LO:LB:g=original	!	!LO:LB:g=original	!	!LO:LB:g=original	!
==82	==82	==82	==82	==82	==82	==82	==82
*M2/2	*	*M2/2	*	*M2/2	*	*M2/2	*
*met(c|)	*	*met(c|)	*	*met(c|)	*	*met(c|)	*
2.G\	Quo-	2.d\	Quo-	2.g\	Quo-	2.dd\	Quo-
4G\	-ni-	4d\	-ni-	4g\	-ni-	4dd\	-ni-
=83	=83	=83	=83	=83	=83	=83	=83
1G	-am	1d	-am,	1g	-am,	1dd	-am,
=84	=84	=84	=84	=84	=84	=84	=84
2r	.	2r	.	2r	.	2r	.
2D\	si	2d\	si	2f#X\	si	2dd\	si
=85	=85	=85	=85	=85	=85	=85	=85
2G\	vo-	2d\	vo-	2g\	vo-	2dd\	vo-
2A\	-lu-	2f\	-lu-	2fn\	-lu-	2a\	-lu-
=86	=86	=86	=86	=86	=86	=86	=86
2B-\	-is-	2d\	-is-	2f\	-is-	2dd\	-is-
2BB-/	-ses,	2B-\	-ses	2f\	-ses	2dd\	-ses
!LO:LB:g=original	!	!LO:LB:g=original	!	!	!	!	!
=87	=87	=87	=87	=87	=87	=87	=87
2B-\	sa-	2B-\	sa-	2f\	sa-	2.dd\	sa-
2F#X\	-cri-	2d\	-cri-	2a\	-cri-	.	.
.	.	.	.	.	.	4cc\	-cri-
!	!	!	!	!LO:LB:g=original	!	!LO:LB:g=original	!
=88	=88	=88	=88	=88	=88	=88	=88
2.G\	-fi-	2.d\	-fi-	2.g\	-fi-	2.b-\	-fi-
4G\	-ci-	4d\	-ci-	4g\	-ci-	4b-\	-ci-
=89	=89	=89	=89	=89	=89	=89	=89
2G\	-um	2d\	-um,	2g\	-um	2b-\	-um,
2D\	de-	2B-\	de-	2f\	de-	2dd\	de-
=90	=90	=90	=90	=90	=90	=90	=90
2E-X\	-dis-	2B-\	-dis-	2g\	-dis-	2b-\	-dis-
2BB-/	-sem	2B-\	-sem	2f\	-sem	2dd\	-sem
=91	=91	=91	=91	=91	=91	=91	=91
[1F	u-	2c\	u-	1f	u-	2cc\	u-
.	.	2B-\	.	.	.	2dd\	.
=92	=92	=92	=92	=92	=92	=92	=92
2F\]	.	2.c\	.	2f\	.	2.cc\	.
2F\	-ti-	.	.	2f\	-ti-	.	.
.	.	4c\	-ti-	.	.	4cc\	-ti-
!	!	!LO:LB:g=original	!	!	!	!	!
=93	=93	=93	=93	=93	=93	=93	=93
1BB-	-que,	1d	-que	1f	-que,	1b-	-que,
!LO:LB:g=original	!	!	!	!	!	!	!
=94	=94	=94	=94	=94	=94	=94	=94
1F	ho-	1c	ho-	2f\	ho-	2cc\	ho-
.	.	.	.	2f\	-lo-	2cc\	-lo-
!	!	!	!	!LO:LB:g=original	!	!LO:LB:g=original	!
=95	=95	=95	=95	=95	=95	=95	=95
!LO:N:xstem:cue	!	!LO:N:sxtem:cue	!	!	!	!	!
2F\	.	2c\	.	1f	-caus-	1cc	-caus-
2F\	-lo-	2c\	-lo-	.	.	.	.
=96	=96	=96	=96	=96	=96	=96	=96
1F	-caus-	2c\	-caus-	2f\	.	2cc\	-tis
.	.	[2c\	-tis	2f\	tis	[2cc\	non
=97	=97	=97	=97	=97	=97	=97	=97
2FF/	-tis	2c\]	.	2f\	.	2cc\]	.
2F\	non	2c\	non	2f\	non	[2cc\	de-
=98	=98	=98	=98	=98	=98	=98	=98
2E-X\	de-	2c\	de-	2g\	de-	2cc\]	.
2D\	-le-	2d\	-le-	2f\	-le-	2bn\	-le-
=99	=99	=99	=99	=99	=99	=99	=99
2.C/	-cta-	2.e-X\	-cta-	2.g\	-cta-	2.cc\	-cta-
4C/	-be-	4e-\	-be-	4g\	-be-	4cc\	-be-
=100	=100	=100	=100	=100	=100	=100	=100
2C/	-ris	2e\	-ris,	2g\	-ris	2cc\	-ris,
2D/	non	2d\	non	2f#X\	non	2a\	non,
!LO:LB:g=original	!	!LO:LB:g=original	!	!	!	!	!
=101	=101	=101	=101	=101	=101	=101	=101
2GG/	de-	2B-\	de-	2g\	de-	2r	.
2FF#X/	-le-	2A\	-le-	2a\	-le-	2dd\	non
!	!	!	!	!LO:LB:g=original	!	!LO:LB:g=original	!
=102	=102	=102	=102	=102	=102	=102	=102
2GG/	-cta-	0d	-cta-	2g\	-cta-	2b-\	de-
2D\	.	.	.	2f#X\	.	2a\	-le-
=103	=103	=103	=103	=103	=103	=103	=103
[1GG	.	.	.	2g\	.	4b-\	-cta-
.	.	.	.	.	.	4cc\	.
.	.	.	.	2d\	.	4dd\	.
.	.	.	.	.	.	4cc\	.
=104	=104	=104	=104	=104	=104	=104	=104
2GG/]	.	0d	-be-	1g	.	4b-\	.
.	.	.	.	.	.	4a\	.
2GG/	-be-	.	.	.	.	2g\	.
=105	=105	=105	=105	=105	=105	=105	=105
1D	-ris	.	.	2g\	.	1a	-be-
.	.	.	.	4f#X\	.	.	.
.	.	.	.	4e\	-be-	.	.
=106	=106	=106	=106	=106	=106	=106	=106
0D	.	0d;	-ris.	0f#X	-ris.	0a	-ris.
!LO:LB:g=original	!	!LO:LB:g=original	!	!LO:LB:g=original	!	!LO:LB:g=original	!
==107	==107	==107	==107	==107	==107	==107	==107
!LO:TX:a:t=2	!	!LO:TX:a:t=2.	!	!LO:TX:a:t=3	!	!LO:TX:a:t=3.	!
0r	.	0r	.	0r	.	0r	.
=108	=108	=108	=108	=108	=108	=108	=108
=109	=109	=109	=109	=109	=109	=109	=109
2r	.	2r	.	1r	.	1r	.
[2G\	Tunc	[2d\	Tunc	.	.	.	.
=110	=110	=110	=110	=110	=110	=110	=110
2G\]	.	2d\]	.	2g\	Tunc	2bn\	Tunc
2G\	im-	2d\	im-	2g\	im-	2b\	im-
=111	=111	=111	=111	=111	=111	=111	=111
2c\	-po-	2e-X\	-po-	2g\	-po-	2cc\	-po-
2C/	-nent,	2e-\	-net	2g\	-nent	2cc\	-nent
=112	=112	=112	=112	=112	=112	=112	=112
!LO:TX:a:t=1	!	!LO:TX:a:t=1	!	!LO:TX:a:t=1	!	!LO:TX:a:t=1	!
1r	.	1r	.	1r	.	1r	.
=113	=113	=113	=113	=113	=113	=113	=113
2G\	su-	2d\	su-	2g\	su-	2bn\	su-
4G\	-per	4d\	-per	4g\	-per	4b\	-per
4G\	al-	4d\	al-	4g\	al-	4dd\	al-
!LO:LB:g=original	!	!LO:LB:g=original	!	!LO:LB:g=original	!	!LO:LB:g=original	!
=114	=114	=114	=114	=114	=114	=114	=114
2E-X\	-ta-	2c\	-ta-	2g\	-ta-	2ee-X\	-ta-
2G\	-re	2Bn\	-re	2g\	-re	2dd\	-re
=115	=115	=115	=115	=115	=115	=115	=115
2C/	tu-	2c\	tu-	2g\	tu-	2ee-X\	tu-
2GG/	-um	2d\	-um	2g\	-um	2b-X\	-um
=116	=116	=116	=116	=116	=116	=116	=116
2.D\	vi-	2.d\	vi-	2.g\	vi-	2cc\	vi-
.	.	.	.	.	.	2dd\	-tu-
4D\	-tu-	4d\	-tu-	4f#X\	-tu-	.	.
=117	=117	=117	=117	=117	=117	=117	=117
1GG	-los,	1d	-los,	1g	-los,	1dd	-los,
=118	=118	=118	=118	=118	=118	=118	=118
!LO:TX:a:t=1	!	!LO:TX:a:t=1	!	!LO:TX:a:t=1	!	!LO:TX:a:t=1	!
1r	.	1r	.	1r	.	1r	.
=119	=119	=119	=119	=119	=119	=119	=119
2c\	su-	2c\	su-	2g\	su-	2ee-X\	su-
4c\	-per	4c\	-per	4g\	-per	4ee-\	-per
4c\	al-	4c\	al-	4g\	al-	4ee-\	al-
!LO:LB:g=original	!	!LO:LB:g=original	!	!LO:LB:g=original	!	!LO:LB:g=original	!
=120	=120	=120	=120	=120	=120	=120	=120
2c\	-ta-	2G/	-ta-	2g\	-ta-	2dd\	-ta-
2Bn\	-re	2G/	-re	2g\	-re	2dd\	-re
=121	=121	=121	=121	=121	=121	=121	=121
4c\	tu-	2c\	tu-	2e-X\	tu-	2ee-X\	tu-
4C/	-um	.	.	.	.	.	.
2G\	vi-	2G/	-um	2g\	-um	[2dd\	-um
=122	=122	=122	=122	=122	=122	=122	=122
2.C/	.	2.G/	vi-	2.e-X\	vi-	2dd\]	.
.	.	.	.	.	.	2cc\	vi-
4C/	-tu-	4G/	-tu-	4e-\	-tu-	.	.
=123	=123	=123	=123	=123	=123	=123	=123
0GG	-los.	0G;	-los.	0d;	-los.	2cc\	.
.	.	.	.	.	.	4bn\	.
.	.	.	.	.	.	4a\	-tu-
=124	=124	=124	=124	=124	=124	=124	=124
!	!	!	!	!	!	!LO:TX:t=P:problem:SIC:s=1b	!
.	.	.	.	.	.	1b-;	-los.
==	==	==	==	==	==	==	==
*-	*-	*-	*-	*-	*-	*-	*-
!!!system-decoration: [(s1,s2,s3,s4)]
!!!ENC: Filip Voros
!!!END: 2023-11-19
!!!ENC: Leszek Kubiak
!!!END: 2024-10-10
